X:1
T:Seven Lonely Days
T:Seven Lonely Days
T:Earl Shuman: Alden Shuman and Marshall Brown
C:Earl Shuman, Alden Shuman, Marshall Brown
Z:All Rights Reserved
L:1/4
M:4/4
K:G
V:1 treble 
%%MIDI program 4
V:1
|:"G""^Verse:" B/ d3/2 B G |"G7" B3 A |"C" G2 C E |"G" D4 |"D7" A/ A3/2"Am7" A G |"D7" A B2 A | %6
w: Sev- en lone- ly|days make|one lone- ly|week|sev- en lone- ly|nights * make|
"G" G2"C" G E |"G" G4 | B/ d3/2 B G | B3"G7" A |"C" G G C E |"G" D4 |"D7" A/ A3/2"Am7" A G | %13
w: one lone- ly|me|Ev- er since the|time you|told me we were|through|sev- en lone- ly|
"D7" A B2 A |"G" G G"C" E E |"G" G"^Chorus:" z z2 || (3B ^A B =A/ G3/2 ||"G" D2 G2 | %18
w: days * I|cried and cried for|you|Oh my dar- ling you're|cry- ing|
 z/ G3/2"D7" F"G7" =F |"C" E4 | (3z A ^G"A7" (3A G =G |"D7" F2 d2 | z/ D3/2"A7" E"D7" F |"G" G4 | %24
w: Boo hoo, hoo,|hoo|there's no use in de-||I cried for|you|
"C" (3^A"G" B A (3B =A G | D2 G2 | z2 z"G7" (3G/F/=F/ |"C" E4 | z2 A"A7" (3A/^G/=G/ |"D7" F2 d2 |1 %30
w: It was your fav- o- rite|pas- tine|Mak- ing me|blue|last week was the|last time|
 z/"A7" D3/2 E"D7" F | G4- |"G" G4 :|2"G" z/ D3/2"A7" E"D7" F |"G" G4- |"C" G3"G" z |] %36
w: I cried for|you|_|I cried for|you.|_|

